X: 1983
T: The White Sand of Caloundra
C:Bill Montgomery, Kiama, NSW
B: australian traditional tunes wiki
M:4/4
L:1/8
R: March
Q: 1/4=100
K:D
V:1 
A/G/|"D"FAAd FA AB/c/|dAfa fd de/d/|"A7"ceeg ce e/f/e/d/|ceed cA A/B/A/G/|
"D"FAAd FA AB/c/|dAfa fd de/d/|"A7"ceeg ce e/f/e/d/|cbag "D"fd d:|
f/g/|"D"adfa fd de/f/|"A7"gfed ce ef/g/|"D"adfa fd de/d/|"A7"cbag "D"fd d:|
% abcbook-tune_id 6342d5be534de91325667fbe


% abcbook-boost 0
% abcbook-tablature 
% abcbook-transpose 
% abcbook-lastupdated 1665324492390
% abcbook-soundfonts 
% abcbook-repeats 1
% NFF Book 2015

